X:1
T:Title
%%score { 1 | 2 }
L:1/8
Q:1/4=100
M:4/4
K:Ab
V:1 treble nm="Grand Piano"
V:2 bass 
V:1
 [CE]2 [CE]2 [DF]2 [CE]2 | [Ec]3 [DB] [CA]4 | E2 E2 F2 E2 | d3 c B4 | c2 d2 e2 c2 | %5
w: William~Kirkpatrick * * *|||||
 B2 [Ec]2 [Fd]4 | A2 G2 B2 A2 | c3 B [CA]4 | [CE]4 [DF]2 [CE]2 | [CE]2 [CA]4 z2 | c4 B2 A2 | %11
w: ||||||
 c2 B4 z z/ (3:2:2z/ c/4 | e4 c2 [EA]2 | [DF]2 [FA]4 F2 | E2 c2 c3 B | [CA]6 z2 |] %16
w: |||||
V:2
 [A,,A,]2 [A,,A,]2 [A,,A,]2 [A,,A,]2 | [A,,A,]3 [A,,E,] [A,,E,]4 | %2
 [E,G,B,]2 [E,G,B,]2 [E,A,D]2 [E,G,B,]2 | [G,B,E]3 [A,E] [E,G,E]4 | %4
 [A,E]2 [A,B,E]2 [A,CE]2 [A,E]2 | [D,F,D]2 [C,=A,]2 [B,,B,]4 | [E,CE]2 [E,B,E]2 [E,DE]2 [E,CE]2 | %7
 [E,A,E]3 [E,G,D] [A,,E,A,]4 | [A,,A,]4 [A,,A,]2 [A,,A,]2 | [A,,A,]2 [A,,E,]4 z2 | %10
 [A,E]4 [G,B,E]2 [F,B,=D]2 | [E,A,E]2 [E,G,E]4 z2 | [A,CE]4 [A,E]2 [C,A,]2 | %13
 [D,A,]2 [D,A,]4 [D,A,D]2 | [E,A,C]2 [E,A,E]2 [E,A,E]3 [E,G,D] | [A,,A,]6 z2 |] %16

